; generated by Slic3r 1.2.9 on 2015-07-23 at 18:03:07

; external perimeters extrusion width = 0.50mm
; perimeters extrusion width = 0.85mm
; infill extrusion width = 1.34mm
; solid infill extrusion width = 0.85mm
; top infill extrusion width = 0.85mm

M107
M190 S45 ; set bed temperature
M104 S248 ; set temperature
G28 ; home all axes
G1 Z5 F5000 ; lift nozzle

M109 S248 ; wait for temperature to be reached
G21 ; set units to millimeters
G90 ; use absolute coordinates
M82 ; use absolute distances for extrusion
G92 E0
G1 E-6.20000 F3600.00000
G92 E0
G1 Z0.300 F4800.000
G1 X74.724 Y75.182 F4800.000
G1 Z0.150 F4800.000
G1 E6.20000 F3600.00000
G1 X76.484 Y73.659 E6.31867 F2880.000
G1 X78.653 Y72.817 E6.43734
G1 X80.000 Y72.682 E6.50640
G1 X120.000 Y72.682 E8.54643
G1 X122.293 Y73.079 E8.66510
G1 X124.318 Y74.224 E8.78377
G1 X125.841 Y75.984 E8.90245
G1 X126.683 Y78.153 E9.02112
G1 X126.818 Y79.500 E9.09017
G1 X126.818 Y120.500 E11.18121
G1 X126.421 Y122.793 E11.29988
G1 X125.276 Y124.818 E11.41855
G1 X123.516 Y126.341 E11.53722
G1 X121.347 Y127.183 E11.65589
G1 X120.000 Y127.318 E11.72495
G1 X80.000 Y127.318 E13.76498
G1 X77.707 Y126.921 E13.88365
G1 X75.682 Y125.776 E14.00232
G1 X74.159 Y124.016 E14.12100
G1 X73.317 Y121.847 E14.23967
G1 X73.182 Y120.500 E14.30872
G1 X73.182 Y79.500 E16.39976
G1 X73.579 Y77.207 E16.51843
G1 X74.687 Y75.247 E16.63328
G1 E10.43328 F3600.00000
G92 E0
G1 Z0.450 F4800.000
G1 X119.750 Y120.250 F4800.000
G1 Z0.150 F4800.000
G1 E6.20000 F3600.00000
G1 X80.250 Y120.250 E7.35237 F1612.800
G1 X80.250 Y102.350 E7.87458
G1 X119.750 Y102.350 E9.02695
G1 X119.750 Y120.175 E9.54698
G1 E3.34698 F3600.00000
G92 E0
G1 Z0.450 F4800.000
G1 X119.367 Y102.978 F4800.000
G1 Z0.150 F4800.000
G1 E6.20000 F3600.00000
G1 X80.633 Y102.978 E8.21025 F1920.000
G1 X80.633 Y103.810 E8.25344
G1 X119.367 Y103.810 E10.26369
G1 X119.367 Y104.642 E10.30688
G1 X80.633 Y104.642 E12.31713
G1 X80.633 Y105.475 E12.36032
G1 X119.367 Y105.475 E14.37057
G1 X119.367 Y106.307 E14.41376
G1 X80.633 Y106.307 E16.42401
G1 X80.633 Y107.139 E16.46719
G1 X119.367 Y107.139 E18.47744
G1 X119.367 Y107.971 E18.52063
G1 X80.633 Y107.971 E20.53088
G1 X80.633 Y108.803 E20.57407
G1 X119.367 Y108.803 E22.58432
G1 X119.367 Y109.636 E22.62751
G1 X80.633 Y109.636 E24.63776
G1 X80.633 Y110.468 E24.68095
G1 X119.367 Y110.468 E26.69120
G1 X119.367 Y111.300 E26.73439
G1 X80.633 Y111.300 E28.74464
G1 X80.633 Y112.132 E28.78783
G1 X119.367 Y112.132 E30.79808
G1 X119.367 Y112.964 E30.84127
G1 X80.633 Y112.964 E32.85152
G1 X80.633 Y113.797 E32.89471
G1 X119.367 Y113.797 E34.90496
G1 X119.367 Y114.629 E34.94815
G1 X80.633 Y114.629 E36.95839
G1 X80.633 Y115.461 E37.00158
G1 X119.367 Y115.461 E39.01183
G1 X119.367 Y116.293 E39.05502
G1 X80.633 Y116.293 E41.06527
G1 X80.633 Y117.125 E41.10846
G1 X119.367 Y117.125 E43.11871
G1 X119.367 Y117.958 E43.16190
G1 X80.633 Y117.958 E45.17215
G1 X80.633 Y118.790 E45.21534
G1 X119.367 Y118.790 E47.22559
G1 X119.367 Y119.622 E47.26878
G1 X80.633 Y119.622 E49.27903
G1 E43.07903 F3600.00000
G92 E0
G1 Z0.450 F4800.000
G1 X119.750 Y97.650 F4800.000
G1 Z0.150 F4800.000
G1 E6.20000 F3600.00000
G1 X80.250 Y97.650 E7.35237 F1612.800
G1 X80.250 Y79.750 E7.87458
G1 X119.750 Y79.750 E9.02695
G1 X119.750 Y97.575 E9.54698
G1 E3.34698 F3600.00000
G92 E0
G1 Z0.450 F4800.000
G1 X119.367 Y80.378 F4800.000
G1 Z0.150 F4800.000
G1 E6.20000 F3600.00000
G1 X80.633 Y80.378 E8.21025 F1920.000
G1 X80.633 Y81.210 E8.25344
G1 X119.367 Y81.210 E10.26369
G1 X119.367 Y82.042 E10.30688
G1 X80.633 Y82.042 E12.31713
G1 X80.633 Y82.875 E12.36032
G1 X119.367 Y82.875 E14.37057
G1 X119.367 Y83.707 E14.41376
G1 X80.633 Y83.707 E16.42401
G1 X80.633 Y84.539 E16.46719
G1 X119.367 Y84.539 E18.47744
G1 X119.367 Y85.371 E18.52063
G1 X80.633 Y85.371 E20.53088
G1 X80.633 Y86.203 E20.57407
G1 X119.367 Y86.203 E22.58432
G1 X119.367 Y87.036 E22.62751
G1 X80.633 Y87.036 E24.63776
G1 X80.633 Y87.868 E24.68095
G1 X119.367 Y87.868 E26.69120
G1 X119.367 Y88.700 E26.73439
G1 X80.633 Y88.700 E28.74464
G1 X80.633 Y89.532 E28.78783
G1 X119.367 Y89.532 E30.79808
G1 X119.367 Y90.364 E30.84127
G1 X80.633 Y90.364 E32.85152
G1 X80.633 Y91.197 E32.89471
G1 X119.367 Y91.197 E34.90496
G1 X119.367 Y92.029 E34.94815
G1 X80.633 Y92.029 E36.95839
G1 X80.633 Y92.861 E37.00158
G1 X119.367 Y92.861 E39.01183
G1 X119.367 Y93.693 E39.05502
G1 X80.633 Y93.693 E41.06527
G1 X80.633 Y94.525 E41.10846
G1 X119.367 Y94.525 E43.11871
G1 X119.367 Y95.358 E43.16190
G1 X80.633 Y95.358 E45.17215
G1 X80.633 Y96.190 E45.21534
G1 X119.367 Y96.190 E47.22559
G1 X119.367 Y97.022 E47.26878
G1 X80.633 Y97.022 E49.27903
M106 S147.9
G1 E43.07903 F3600.00000
G92 E0
G1 Z0.450 F4800.000
G1 X119.750 Y102.350 F4800.000
G1 Z0.300 F4800.000
G1 E6.20000 F3600.00000
G1 X119.750 Y120.250 E6.72221 F2016.000
G1 X80.250 Y120.250 E7.87458
G1 X80.250 Y102.350 E8.39679
G1 X119.675 Y102.350 E9.54698
G1 E3.34698 F3600.00000
G92 E0
G1 Z0.600 F4800.000
G1 X119.122 Y119.867 F4800.000
G1 Z0.300 F4800.000
G1 E6.20000 F3600.00000
G1 X119.122 Y102.733 E7.08839 F2400.000
G1 X118.291 Y102.733 E7.13150
G1 X118.291 Y119.867 E8.01989
G1 X117.459 Y119.867 E8.06299
G1 X117.459 Y102.733 E8.95138
G1 X116.628 Y102.733 E8.99449
G1 X116.628 Y119.867 E9.88288
G1 X115.796 Y119.867 E9.92598
G1 X115.796 Y102.733 E10.81437
G1 X114.965 Y102.733 E10.85748
G1 X114.965 Y119.867 E11.74587
G1 X114.134 Y119.867 E11.78898
G1 X114.134 Y102.733 E12.67737
G1 X113.302 Y102.733 E12.72047
G1 X113.302 Y119.867 E13.60886
G1 X112.471 Y119.867 E13.65197
G1 X112.471 Y102.733 E14.54036
G1 X111.639 Y102.733 E14.58347
G1 X111.639 Y119.867 E15.47186
G1 X110.808 Y119.867 E15.51496
G1 X110.808 Y102.733 E16.40335
G1 X109.977 Y102.733 E16.44646
G1 X109.977 Y119.867 E17.33485
G1 X109.145 Y119.867 E17.37795
G1 X109.145 Y102.733 E18.26634
G1 X108.314 Y102.733 E18.30945
G1 X108.314 Y119.867 E19.19784
G1 X107.483 Y119.867 E19.24095
G1 X107.483 Y102.733 E20.12934
G1 X106.651 Y102.733 E20.17244
G1 X106.651 Y119.867 E21.06083
G1 X105.820 Y119.867 E21.10394
G1 X105.820 Y102.733 E21.99233
G1 X104.988 Y102.733 E22.03543
G1 X104.988 Y119.867 E22.92382
G1 X104.157 Y119.867 E22.96693
G1 X104.157 Y102.733 E23.85532
G1 X103.326 Y102.733 E23.89843
G1 X103.326 Y119.867 E24.78682
G1 X102.494 Y119.867 E24.82992
G1 X102.494 Y102.733 E25.71831
G1 X101.663 Y102.733 E25.76142
G1 X101.663 Y119.867 E26.64981
G1 X100.831 Y119.867 E26.69291
G1 X100.831 Y102.733 E27.58131
G1 X100.000 Y102.733 E27.62441
G1 X100.000 Y119.867 E28.51280
G1 X99.169 Y119.867 E28.55591
G1 X99.169 Y102.733 E29.44430
G1 X98.337 Y102.733 E29.48740
G1 X98.337 Y119.867 E30.37579
G1 X97.506 Y119.867 E30.41890
G1 X97.506 Y102.733 E31.30729
G1 X96.674 Y102.733 E31.35040
G1 X96.674 Y119.867 E32.23879
G1 X95.843 Y119.867 E32.28189
G1 X95.843 Y102.733 E33.17028
G1 X95.012 Y102.733 E33.21339
G1 X95.012 Y119.867 E34.10178
G1 X94.180 Y119.867 E34.14488
G1 X94.180 Y102.733 E35.03327
G1 X93.349 Y102.733 E35.07638
G1 X93.349 Y119.867 E35.96477
G1 X92.518 Y119.867 E36.00788
G1 X92.518 Y102.733 E36.89627
G1 X91.686 Y102.733 E36.93937
G1 X91.686 Y119.867 E37.82776
G1 X90.855 Y119.867 E37.87087
G1 X90.855 Y102.733 E38.75926
G1 X90.023 Y102.733 E38.80236
G1 X90.023 Y119.867 E39.69075
G1 X89.192 Y119.867 E39.73386
G1 X89.192 Y102.733 E40.62225
G1 X88.361 Y102.733 E40.66536
G1 X88.361 Y119.867 E41.55375
G1 X87.529 Y119.867 E41.59685
G1 X87.529 Y102.733 E42.48524
G1 X86.698 Y102.733 E42.52835
G1 X86.698 Y119.867 E43.41674
G1 X85.866 Y119.867 E43.45985
G1 X85.866 Y102.733 E44.34824
G1 X85.035 Y102.733 E44.39134
G1 X85.035 Y119.867 E45.27973
G1 X84.204 Y119.867 E45.32284
G1 X84.204 Y102.733 E46.21123
G1 X83.372 Y102.733 E46.25433
G1 X83.372 Y119.867 E47.14272
G1 X82.541 Y119.867 E47.18583
G1 X82.541 Y102.733 E48.07422
G1 X81.709 Y102.733 E48.11733
G1 X81.709 Y119.867 E49.00572
G1 X80.878 Y119.867 E49.04882
G1 X80.878 Y102.733 E49.93721
G1 E43.73721 F3600.00000
G92 E0
G1 Z0.600 F4800.000
G1 X119.750 Y97.650 F4800.000
G1 Z0.300 F4800.000
G1 E6.20000 F3600.00000
G1 X80.250 Y97.650 E7.35237 F2016.000
G1 X80.250 Y79.750 E7.87458
G1 X119.750 Y79.750 E9.02695
G1 X119.750 Y97.575 E9.54698
G1 E3.34698 F3600.00000
G92 E0
G1 Z0.600 F4800.000
G1 X119.122 Y97.267 F4800.000
G1 Z0.300 F4800.000
G1 E6.20000 F3600.00000
G1 X119.122 Y80.133 E7.08839 F2400.000
G1 X118.291 Y80.133 E7.13150
G1 X118.291 Y97.267 E8.01989
G1 X117.459 Y97.267 E8.06299
G1 X117.459 Y80.133 E8.95138
G1 X116.628 Y80.133 E8.99449
G1 X116.628 Y97.267 E9.88288
G1 X115.796 Y97.267 E9.92598
G1 X115.796 Y80.133 E10.81437
G1 X114.965 Y80.133 E10.85748
G1 X114.965 Y97.267 E11.74587
G1 X114.134 Y97.267 E11.78898
G1 X114.134 Y80.133 E12.67737
G1 X113.302 Y80.133 E12.72047
G1 X113.302 Y97.267 E13.60886
G1 X112.471 Y97.267 E13.65197
G1 X112.471 Y80.133 E14.54036
G1 X111.639 Y80.133 E14.58347
G1 X111.639 Y97.267 E15.47186
G1 X110.808 Y97.267 E15.51496
G1 X110.808 Y80.133 E16.40335
G1 X109.977 Y80.133 E16.44646
G1 X109.977 Y97.267 E17.33485
G1 X109.145 Y97.267 E17.37795
G1 X109.145 Y80.133 E18.26634
G1 X108.314 Y80.133 E18.30945
G1 X108.314 Y97.267 E19.19784
G1 X107.483 Y97.267 E19.24095
G1 X107.483 Y80.133 E20.12934
G1 X106.651 Y80.133 E20.17244
G1 X106.651 Y97.267 E21.06083
G1 X105.820 Y97.267 E21.10394
G1 X105.820 Y80.133 E21.99233
G1 X104.988 Y80.133 E22.03543
G1 X104.988 Y97.267 E22.92382
G1 X104.157 Y97.267 E22.96693
G1 X104.157 Y80.133 E23.85532
G1 X103.326 Y80.133 E23.89843
G1 X103.326 Y97.267 E24.78682
G1 X102.494 Y97.267 E24.82992
G1 X102.494 Y80.133 E25.71831
G1 X101.663 Y80.133 E25.76142
G1 X101.663 Y97.267 E26.64981
G1 X100.831 Y97.267 E26.69291
G1 X100.831 Y80.133 E27.58131
G1 X100.000 Y80.133 E27.62441
G1 X100.000 Y97.267 E28.51280
G1 X99.169 Y97.267 E28.55591
G1 X99.169 Y80.133 E29.44430
G1 X98.337 Y80.133 E29.48740
G1 X98.337 Y97.267 E30.37579
G1 X97.506 Y97.267 E30.41890
G1 X97.506 Y80.133 E31.30729
G1 X96.674 Y80.133 E31.35040
G1 X96.674 Y97.267 E32.23879
G1 X95.843 Y97.267 E32.28189
G1 X95.843 Y80.133 E33.17028
G1 X95.012 Y80.133 E33.21339
G1 X95.012 Y97.267 E34.10178
G1 X94.180 Y97.267 E34.14488
G1 X94.180 Y80.133 E35.03327
G1 X93.349 Y80.133 E35.07638
G1 X93.349 Y97.267 E35.96477
G1 X92.518 Y97.267 E36.00788
G1 X92.518 Y80.133 E36.89627
G1 X91.686 Y80.133 E36.93937
G1 X91.686 Y97.267 E37.82776
G1 X90.855 Y97.267 E37.87087
G1 X90.855 Y80.133 E38.75926
G1 X90.023 Y80.133 E38.80236
G1 X90.023 Y97.267 E39.69075
G1 X89.192 Y97.267 E39.73386
G1 X89.192 Y80.133 E40.62225
G1 X88.361 Y80.133 E40.66536
G1 X88.361 Y97.267 E41.55375
G1 X87.529 Y97.267 E41.59685
G1 X87.529 Y80.133 E42.48524
G1 X86.698 Y80.133 E42.52835
G1 X86.698 Y97.267 E43.41674
G1 X85.866 Y97.267 E43.45985
G1 X85.866 Y80.133 E44.34824
G1 X85.035 Y80.133 E44.39134
G1 X85.035 Y97.267 E45.27973
G1 X84.204 Y97.267 E45.32284
G1 X84.204 Y80.133 E46.21123
G1 X83.372 Y80.133 E46.25433
G1 X83.372 Y97.267 E47.14272
G1 X82.541 Y97.267 E47.18583
G1 X82.541 Y80.133 E48.07422
G1 X81.709 Y80.133 E48.11733
G1 X81.709 Y97.267 E49.00572
G1 X80.878 Y97.267 E49.04882
G1 X80.878 Y80.133 E49.93721
M106 S170.85
G1 E43.73721 F3600.00000
G92 E0
G1 Z0.600 F4800.000
G1 X119.750 Y112.248 F4800.000
G1 Z0.450 F4800.000
G1 E6.20000 F3600.00000
G1 X119.750 Y120.250 E6.43346 F2016.000
G1 X80.250 Y120.250 E7.58583
G1 X80.250 Y112.248 E7.81929
G1 X119.675 Y112.248 E8.96947
G1 E2.76947 F3600.00000
G92 E0
G1 Z0.750 F4800.000
G1 X119.367 Y112.876 F4800.000
G1 Z0.450 F4800.000
G1 E6.20000 F3600.00000
G1 X80.633 Y112.876 E8.23703 F2400.000
G1 X80.633 Y113.719 E8.28138
G1 X119.367 Y113.719 E10.31841
G1 X119.367 Y114.562 E10.36276
G1 X80.633 Y114.562 E12.39979
G1 X80.633 Y115.406 E12.44414
G1 X119.367 Y115.406 E14.48117
G1 X119.367 Y116.249 E14.52551
G1 X80.633 Y116.249 E16.56254
G1 X80.633 Y117.092 E16.60689
G1 X119.367 Y117.092 E18.64392
G1 X119.367 Y117.935 E18.68827
G1 X80.633 Y117.935 E20.72530
G1 X80.633 Y118.779 E20.76965
G1 X119.367 Y118.779 E22.80668
G1 X119.367 Y119.622 E22.85103
G1 X80.633 Y119.622 E24.88806
G1 E18.68806 F3600.00000
G92 E0
G1 Z0.750 F4800.000
G1 X119.750 Y109.794 F4800.000
G1 Z0.450 F4800.000
G1 E6.20000 F3600.00000
G1 X80.250 Y109.794 E7.35237 F2016.000
G1 X80.250 Y102.350 E7.56955
G1 X119.750 Y102.350 E8.72192
G1 X119.750 Y109.719 E8.93691
G1 E2.73691 F3600.00000
G92 E0
G1 Z0.750 F4800.000
G1 X80.633 Y109.166 F4800.000
G1 Z0.450 F4800.000
G1 E6.20000 F3600.00000
G1 X119.367 Y109.166 E8.33546 F2400.000
G1 X119.367 Y108.282 E8.38420
G1 X80.633 Y108.282 E10.51966
G1 X80.633 Y107.398 E10.56839
G1 X119.367 Y107.398 E12.70385
G1 X119.367 Y106.514 E12.75259
G1 X80.633 Y106.514 E14.88805
G1 X80.633 Y105.630 E14.93679
G1 X119.367 Y105.630 E17.07225
G1 X119.367 Y104.746 E17.12099
G1 X80.633 Y104.746 E19.25645
G1 X80.633 Y103.862 E19.30518
G1 X119.367 Y103.862 E21.44064
G1 X119.367 Y102.978 E21.48938
G1 X80.633 Y102.978 E23.62484
G1 E17.42484 F3600.00000
G92 E0
G1 Z0.750 F4800.000
G1 X119.750 Y97.650 F4800.000
G1 Z0.450 F4800.000
G1 E6.20000 F3600.00000
G1 X80.250 Y97.650 E7.35237 F2016.000
G1 X80.250 Y90.206 E7.56955
G1 X119.750 Y90.206 E8.72192
G1 X119.750 Y97.575 E8.93691
G1 E2.73691 F3600.00000
G92 E0
G1 Z0.750 F4800.000
G1 X80.633 Y97.022 F4800.000
G1 Z0.450 F4800.000
G1 E6.20000 F3600.00000
G1 X119.367 Y97.022 E8.33546 F2400.000
G1 X119.367 Y96.138 E8.38420
G1 X80.633 Y96.138 E10.51966
G1 X80.633 Y95.254 E10.56839
G1 X119.367 Y95.254 E12.70385
G1 X119.367 Y94.370 E12.75259
G1 X80.633 Y94.370 E14.88805
G1 X80.633 Y93.486 E14.93679
G1 X119.367 Y93.486 E17.07225
G1 X119.367 Y92.602 E17.12099
G1 X80.633 Y92.602 E19.25645
G1 X80.633 Y91.718 E19.30518
G1 X119.367 Y91.718 E21.44064
G1 X119.367 Y90.834 E21.48938
G1 X80.633 Y90.834 E23.62484
G1 E17.42484 F3600.00000
G92 E0
G1 Z0.750 F4800.000
G1 X119.750 Y87.752 F4800.000
G1 Z0.450 F4800.000
G1 E6.20000 F3600.00000
G1 X80.250 Y87.752 E7.35237 F2016.000
G1 X80.250 Y79.750 E7.58583
G1 X119.750 Y79.750 E8.73820
G1 X119.750 Y87.677 E8.96947
G1 E2.76947 F3600.00000
G92 E0
G1 Z0.750 F4800.000
G1 X119.367 Y80.378 F4800.000
G1 Z0.450 F4800.000
G1 E6.20000 F3600.00000
G1 X80.633 Y80.378 E8.23703 F2400.000
G1 X80.633 Y81.221 E8.28138
G1 X119.367 Y81.221 E10.31841
G1 X119.367 Y82.065 E10.36276
G1 X80.633 Y82.065 E12.39978
G1 X80.633 Y82.908 E12.44413
G1 X119.367 Y82.908 E14.48116
G1 X119.367 Y83.751 E14.52551
G1 X80.633 Y83.751 E16.56254
G1 X80.633 Y84.594 E16.60689
G1 X119.367 Y84.594 E18.64392
G1 X119.367 Y85.438 E18.68827
G1 X80.633 Y85.438 E20.72529
G1 X80.633 Y86.281 E20.76964
G1 X119.367 Y86.281 E22.80667
G1 X119.367 Y87.124 E22.85102
G1 X80.633 Y87.124 E24.88805
M106 S232.05
G1 E18.68805 F3600.00000
G92 E0
G1 Z0.750 F4800.000
G1 X119.750 Y112.339 F4800.000
G1 Z0.600 F4800.000
G1 E6.20000 F3600.00000
G1 X119.750 Y120.250 E6.43079 F2016.000
G1 X80.250 Y120.250 E7.58315
G1 X80.250 Y112.339 E7.81394
G1 X119.675 Y112.339 E8.96412
G1 E2.76412 F3600.00000
G92 E0
G1 Z0.900 F4800.000
G1 X119.122 Y119.867 F4800.000
G1 Z0.600 F4800.000
G1 E6.20000 F3600.00000
G1 X119.122 Y112.722 E6.57047 F2400.000
G1 X118.291 Y112.722 E6.61357
G1 X118.291 Y119.867 E6.98404
G1 X117.459 Y119.867 E7.02715
G1 X117.459 Y112.722 E7.39761
G1 X116.628 Y112.722 E7.44072
G1 X116.628 Y119.867 E7.81119
G1 X115.796 Y119.867 E7.85429
G1 X115.796 Y112.722 E8.22476
G1 X114.965 Y112.722 E8.26786
G1 X114.965 Y119.867 E8.63833
G1 X114.134 Y119.867 E8.68144
G1 X114.134 Y112.722 E9.05190
G1 X113.302 Y112.722 E9.09501
G1 X113.302 Y119.867 E9.46548
G1 X112.471 Y119.867 E9.50858
G1 X112.471 Y112.722 E9.87905
G1 X111.639 Y112.722 E9.92216
G1 X111.639 Y119.867 E10.29262
G1 X110.808 Y119.867 E10.33573
G1 X110.808 Y112.722 E10.70620
G1 X109.977 Y112.722 E10.74930
G1 X109.977 Y119.867 E11.11977
G1 X109.145 Y119.867 E11.16287
G1 X109.145 Y112.722 E11.53334
G1 X108.314 Y112.722 E11.57645
G1 X108.314 Y119.867 E11.94691
G1 X107.483 Y119.867 E11.99002
G1 X107.483 Y112.722 E12.36049
G1 X106.651 Y112.722 E12.40359
G1 X106.651 Y119.867 E12.77406
G1 X105.820 Y119.867 E12.81717
G1 X105.820 Y112.722 E13.18763
G1 X104.988 Y112.722 E13.23074
G1 X104.988 Y119.867 E13.60121
G1 X104.157 Y119.867 E13.64431
G1 X104.157 Y112.722 E14.01478
G1 X103.326 Y112.722 E14.05788
