; generated by Slic3r 1.2.9 on 2015-07-23 at 17:46:49

; external perimeters extrusion width = 0.50mm
; perimeters extrusion width = 0.85mm
; infill extrusion width = 1.34mm
; solid infill extrusion width = 0.85mm
; top infill extrusion width = 0.85mm

M107
M190 S45 ; set bed temperature
M104 S248 ; set temperature
G28 ; home all axes
G1 Z5 F5000 ; lift nozzle

M109 S248 ; wait for temperature to be reached
G21 ; set units to millimeters
G90 ; use absolute coordinates
M82 ; use absolute distances for extrusion
G92 E0
G1 E-6.20000 F3600.00000
G92 E0
G1 Z0.300 F4800.000
G1 X74.724 Y75.182 F4800.000
G1 Z0.150 F4800.000
G1 E6.20000 F3600.00000
G1 X76.484 Y73.659 E6.31867 F2880.000
G1 X78.653 Y72.817 E6.43734
G1 X80.000 Y72.682 E6.50640
G1 X120.000 Y72.682 E8.54643
G1 X122.293 Y73.079 E8.66510
G1 X124.318 Y74.224 E8.78377
G1 X125.841 Y75.984 E8.90245
G1 X126.683 Y78.153 E9.02112
G1 X126.818 Y79.500 E9.09017
G1 X126.818 Y120.500 E11.18121
G1 X126.421 Y122.793 E11.29988
G1 X125.276 Y124.818 E11.41855
G1 X123.516 Y126.341 E11.53722
G1 X121.347 Y127.183 E11.65589
G1 X120.000 Y127.318 E11.72495
G1 X80.000 Y127.318 E13.76498
G1 X77.707 Y126.921 E13.88365
G1 X75.682 Y125.776 E14.00232
G1 X74.159 Y124.016 E14.12100
G1 X73.317 Y121.847 E14.23967
G1 X73.182 Y120.500 E14.30872
G1 X73.182 Y79.500 E16.39976
G1 X73.579 Y77.207 E16.51843
G1 X74.687 Y75.247 E16.63328
G1 E10.43328 F3600.00000
G92 E0
G1 Z0.450 F4800.000
G1 X119.750 Y120.250 F4800.000
G1 Z0.150 F4800.000
G1 E6.20000 F3600.00000
G1 X80.250 Y120.250 E7.35237 F1612.800
G1 X80.250 Y102.350 E7.87458
G1 X119.750 Y102.350 E9.02695
G1 X119.750 Y120.175 E9.54698
G1 E3.34698 F3600.00000
G92 E0
G1 Z0.450 F4800.000
G1 X119.367 Y102.978 F4800.000
G1 Z0.150 F4800.000
G1 E6.20000 F3600.00000
G1 X80.633 Y102.978 E8.21026 F1920.000
G1 X80.633 Y103.810 E8.25345
G1 X119.367 Y103.810 E10.26370
G1 X119.367 Y104.642 E10.30689
G1 X80.633 Y104.642 E12.31715
G1 X80.633 Y105.475 E12.36034
G1 X119.367 Y105.475 E14.37059
G1 X119.367 Y106.307 E14.41378
G1 X80.633 Y106.307 E16.42404
G1 X80.633 Y107.139 E16.46723
G1 X119.367 Y107.139 E18.47749
G1 X119.367 Y107.971 E18.52067
G1 X80.633 Y107.971 E20.53093
G1 X80.633 Y108.803 E20.57412
G1 X119.367 Y108.803 E22.58438
G1 X119.367 Y109.636 E22.62757
G1 X80.633 Y109.636 E24.63782
G1 X80.633 Y110.468 E24.68101
G1 X119.367 Y110.468 E26.69127
G1 X119.367 Y111.300 E26.73446
G1 X80.633 Y111.300 E28.74471
G1 X80.633 Y112.132 E28.78790
G1 X119.367 Y112.132 E30.79816
G1 X119.367 Y112.964 E30.84135
G1 X80.633 Y112.964 E32.85161
G1 X80.633 Y113.797 E32.89480
G1 X119.367 Y113.797 E34.90505
G1 X119.367 Y114.629 E34.94824
G1 X80.633 Y114.629 E36.95850
G1 X80.633 Y115.461 E37.00169
G1 X119.367 Y115.461 E39.01194
G1 X119.367 Y116.293 E39.05513
G1 X80.633 Y116.293 E41.06539
G1 X80.633 Y117.125 E41.10858
G1 X119.367 Y117.125 E43.11883
G1 X119.367 Y117.958 E43.16202
G1 X80.633 Y117.958 E45.17228
G1 X80.633 Y118.790 E45.21547
G1 X119.367 Y118.790 E47.22573
G1 X119.367 Y119.622 E47.26892
G1 X80.633 Y119.622 E49.27917
G1 E43.07917 F3600.00000
G92 E0
G1 Z0.450 F4800.000
G1 X119.750 Y97.650 F4800.000
G1 Z0.150 F4800.000
G1 E6.20000 F3600.00000
G1 X80.250 Y97.650 E7.35237 F1612.800
G1 X80.250 Y79.750 E7.87458
G1 X119.750 Y79.750 E9.02695
G1 X119.750 Y97.575 E9.54698
G1 E3.34698 F3600.00000
G92 E0
G1 Z0.450 F4800.000
G1 X119.367 Y80.378 F4800.000
G1 Z0.150 F4800.000
G1 E6.20000 F3600.00000
G1 X80.633 Y80.378 E8.21026 F1920.000
G1 X80.633 Y81.210 E8.25345
G1 X119.367 Y81.210 E10.26370
G1 X119.367 Y82.042 E10.30689
G1 X80.633 Y82.042 E12.31715
G1 X80.633 Y82.875 E12.36034
G1 X119.367 Y82.875 E14.37059
G1 X119.367 Y83.707 E14.41378
G1 X80.633 Y83.707 E16.42404
G1 X80.633 Y84.539 E16.46723
G1 X119.367 Y84.539 E18.47749
G1 X119.367 Y85.371 E18.52067
G1 X80.633 Y85.371 E20.53093
G1 X80.633 Y86.203 E20.57412
G1 X119.367 Y86.203 E22.58438
G1 X119.367 Y87.036 E22.62757
G1 X80.633 Y87.036 E24.63782
G1 X80.633 Y87.868 E24.68101
G1 X119.367 Y87.868 E26.69127
G1 X119.367 Y88.700 E26.73446
G1 X80.633 Y88.700 E28.74471
G1 X80.633 Y89.532 E28.78790
G1 X119.367 Y89.532 E30.79816
G1 X119.367 Y90.364 E30.84135
G1 X80.633 Y90.364 E32.85161
G1 X80.633 Y91.197 E32.89480
G1 X119.367 Y91.197 E34.90505
G1 X119.367 Y92.029 E34.94824
G1 X80.633 Y92.029 E36.95850
G1 X80.633 Y92.861 E37.00169
G1 X119.367 Y92.861 E39.01194
G1 X119.367 Y93.693 E39.05513
G1 X80.633 Y93.693 E41.06539
G1 X80.633 Y94.525 E41.10858
G1 X119.367 Y94.525 E43.11883
G1 X119.367 Y95.358 E43.16202
G1 X80.633 Y95.358 E45.17228
G1 X80.633 Y96.190 E45.21547
G1 X119.367 Y96.190 E47.22573
G1 X119.367 Y97.022 E47.26892
G1 X80.633 Y97.022 E49.27917
M106 S147.9
G1 E43.07917 F3600.00000
G92 E0
G1 Z0.450 F4800.000
G1 X119.750 Y102.350 F4800.000
G1 Z0.300 F4800.000
G1 E6.20000 F3600.00000
G1 X119.750 Y120.250 E6.72221 F2016.000
G1 X80.250 Y120.250 E7.87458
G1 X80.250 Y102.350 E8.39680
G1 X119.675 Y102.350 E9.54698
G1 E3.34698 F3600.00000
G92 E0
G1 Z0.600 F4800.000
G1 X119.122 Y119.867 F4800.000
G1 Z0.300 F4800.000
G1 E6.20000 F3600.00000
G1 X119.122 Y102.733 E7.08839 F2400.000
G1 X118.291 Y102.733 E7.13150
G1 X118.291 Y119.867 E8.01989
G1 X117.459 Y119.867 E8.06300
G1 X117.459 Y102.733 E8.95139
G1 X116.628 Y102.733 E8.99450
G1 X116.628 Y119.867 E9.88289
G1 X115.796 Y119.867 E9.92600
G1 X115.796 Y102.733 E10.81439
G1 X114.965 Y102.733 E10.85750
G1 X114.965 Y119.867 E11.74589
G1 X114.134 Y119.867 E11.78900
G1 X114.134 Y102.733 E12.67739
G1 X113.302 Y102.733 E12.72049
G1 X113.302 Y119.867 E13.60889
G1 X112.471 Y119.867 E13.65199
G1 X112.471 Y102.733 E14.54039
G1 X111.639 Y102.733 E14.58349
G1 X111.639 Y119.867 E15.47189
G1 X110.808 Y119.867 E15.51499
G1 X110.808 Y102.733 E16.40339
G1 X109.977 Y102.733 E16.44649
G1 X109.977 Y119.867 E17.33489
G1 X109.145 Y119.867 E17.37799
G1 X109.145 Y102.733 E18.26638
G1 X108.314 Y102.733 E18.30949
G1 X108.314 Y119.867 E19.19788
G1 X107.483 Y119.867 E19.24099
G1 X107.483 Y102.733 E20.12938
G1 X106.651 Y102.733 E20.17249
G1 X106.651 Y119.867 E21.06088
G1 X105.820 Y119.867 E21.10399
G1 X105.820 Y102.733 E21.99238
G1 X104.988 Y102.733 E22.03549
G1 X104.988 Y119.867 E22.92388
G1 X104.157 Y119.867 E22.96699
G1 X104.157 Y102.733 E23.85538
G1 X103.326 Y102.733 E23.89849
G1 X103.326 Y119.867 E24.78688
G1 X102.494 Y119.867 E24.82998
G1 X102.494 Y102.733 E25.71838
G1 X101.663 Y102.733 E25.76148
G1 X101.663 Y119.867 E26.64988
G1 X100.831 Y119.867 E26.69298
G1 X100.831 Y102.733 E27.58138
G1 X100.000 Y102.733 E27.62448
G1 X100.000 Y119.867 E28.51288
G1 X99.169 Y119.867 E28.55598
G1 X99.169 Y102.733 E29.44438
G1 X98.337 Y102.733 E29.48748
G1 X98.337 Y119.867 E30.37587
G1 X97.506 Y119.867 E30.41898
G1 X97.506 Y102.733 E31.30737
G1 X96.674 Y102.733 E31.35048
G1 X96.674 Y119.867 E32.23887
G1 X95.843 Y119.867 E32.28198
G1 X95.843 Y102.733 E33.17037
G1 X95.012 Y102.733 E33.21348
G1 X95.012 Y119.867 E34.10187
G1 X94.180 Y119.867 E34.14498
G1 X94.180 Y102.733 E35.03337
G1 X93.349 Y102.733 E35.07648
G1 X93.349 Y119.867 E35.96487
G1 X92.518 Y119.867 E36.00798
G1 X92.518 Y102.733 E36.89637
G1 X91.686 Y102.733 E36.93948
G1 X91.686 Y119.867 E37.82787
G1 X90.855 Y119.867 E37.87097
G1 X90.855 Y102.733 E38.75937
G1 X90.023 Y102.733 E38.80247
G1 X90.023 Y119.867 E39.69087
G1 X89.192 Y119.867 E39.73397
G1 X89.192 Y102.733 E40.62237
G1 X88.361 Y102.733 E40.66547
G1 X88.361 Y119.867 E41.55387
G1 X87.529 Y119.867 E41.59697
G1 X87.529 Y102.733 E42.48536
G1 X86.698 Y102.733 E42.52847
G1 X86.698 Y119.867 E43.41686
G1 X85.866 Y119.867 E43.45997
G1 X85.866 Y102.733 E44.34836
G1 X85.035 Y102.733 E44.39147
G1 X85.035 Y119.867 E45.27986
G1 X84.204 Y119.867 E45.32297
G1 X84.204 Y102.733 E46.21136
G1 X83.372 Y102.733 E46.25447
G1 X83.372 Y119.867 E47.14286
G1 X82.541 Y119.867 E47.18597
G1 X82.541 Y102.733 E48.07436
G1 X81.709 Y102.733 E48.11747
G1 X81.709 Y119.867 E49.00586
G1 X80.878 Y119.867 E49.04897
G1 X80.878 Y102.733 E49.93736
G1 E43.73736 F3600.00000
G92 E0
G1 Z0.600 F4800.000
G1 X119.750 Y97.650 F4800.000
G1 Z0.300 F4800.000
G1 E6.20000 F3600.00000
G1 X80.250 Y97.650 E7.35237 F2016.000
G1 X80.250 Y79.750 E7.87458
G1 X119.750 Y79.750 E9.02695
G1 X119.750 Y97.575 E9.54698
G1 E3.34698 F3600.00000
G92 E0
G1 Z0.600 F4800.000
G1 X119.122 Y97.267 F4800.000
G1 Z0.300 F4800.000
G1 E6.20000 F3600.00000
G1 X119.122 Y80.133 E7.08839 F2400.000
G1 X118.291 Y80.133 E7.13150
G1 X118.291 Y97.267 E8.01989
G1 X117.459 Y97.267 E8.06300
G1 X117.459 Y80.133 E8.95139
G1 X116.628 Y80.133 E8.99450
G1 X116.628 Y97.267 E9.88289
G1 X115.796 Y97.267 E9.92600
G1 X115.796 Y80.133 E10.81439
G1 X114.965 Y80.133 E10.85750
G1 X114.965 Y97.267 E11.74589
G1 X114.134 Y97.267 E11.78900
G1 X114.134 Y80.133 E12.67739
G1 X113.302 Y80.133 E12.72049
G1 X113.302 Y97.267 E13.60889
G1 X112.471 Y97.267 E13.65199
G1 X112.471 Y80.133 E14.54039
G1 X111.639 Y80.133 E14.58349
G1 X111.639 Y97.267 E15.47189
G1 X110.808 Y97.267 E15.51499
G1 X110.808 Y80.133 E16.40339
G1 X109.977 Y80.133 E16.44649
G1 X109.977 Y97.267 E17.33489
G1 X109.145 Y97.267 E17.37799
G1 X109.145 Y80.133 E18.26638
G1 X108.314 Y80.133 E18.30949
G1 X108.314 Y97.267 E19.19788
G1 X107.483 Y97.267 E19.24099
G1 X107.483 Y80.133 E20.12938
G1 X106.651 Y80.133 E20.17249
G1 X106.651 Y97.267 E21.06088
G1 X105.820 Y97.267 E21.10399
G1 X105.820 Y80.133 E21.99238
G1 X104.988 Y80.133 E22.03549
G1 X104.988 Y97.267 E22.92388
G1 X104.157 Y97.267 E22.96699
G1 X104.157 Y80.133 E23.85538
G1 X103.326 Y80.133 E23.89849
G1 X103.326 Y97.267 E24.78688
G1 X102.494 Y97.267 E24.82998
G1 X102.494 Y80.133 E25.71838
G1 X101.663 Y80.133 E25.76148
G1 X101.663 Y97.267 E26.64988
G1 X100.831 Y97.267 E26.69298
G1 X100.831 Y80.133 E27.58138
G1 X100.000 Y80.133 E27.62448
G1 X100.000 Y97.267 E28.51288
G1 X99.169 Y97.267 E28.55598
G1 X99.169 Y80.133 E29.44438
G1 X98.337 Y80.133 E29.48748
G1 X98.337 Y97.267 E30.37587
G1 X97.506 Y97.267 E30.41898
G1 X97.506 Y80.133 E31.30737
G1 X96.674 Y80.133 E31.35048
G1 X96.674 Y97.267 E32.23887
G1 X95.843 Y97.267 E32.28198
G1 X95.843 Y80.133 E33.17037
G1 X95.012 Y80.133 E33.21348
G1 X95.012 Y97.267 E34.10187
G1 X94.180 Y97.267 E34.14498
G1 X94.180 Y80.133 E35.03337
G1 X93.349 Y80.133 E35.07648
G1 X93.349 Y97.267 E35.96487
G1 X92.518 Y97.267 E36.00798
G1 X92.518 Y80.133 E36.89637
G1 X91.686 Y80.133 E36.93948
G1 X91.686 Y97.267 E37.82787
G1 X90.855 Y97.267 E37.87097
G1 X90.855 Y80.133 E38.75937
G1 X90.023 Y80.133 E38.80247
G1 X90.023 Y97.267 E39.69087
G1 X89.192 Y97.267 E39.73397
G1 X89.192 Y80.133 E40.62237
G1 X88.361 Y80.133 E40.66547
G1 X88.361 Y97.267 E41.55387
G1 X87.529 Y97.267 E41.59697
G1 X87.529 Y80.133 E42.48536
G1 X86.698 Y80.133 E42.52847
G1 X86.698 Y97.267 E43.41686
G1 X85.866 Y97.267 E43.45997
G1 X85.866 Y80.133 E44.34836
G1 X85.035 Y80.133 E44.39147
G1 X85.035 Y97.267 E45.27986
G1 X84.204 Y97.267 E45.32297
G1 X84.204 Y80.133 E46.21136
G1 X83.372 Y80.133 E46.25447
G1 X83.372 Y97.267 E47.14286
G1 X82.541 Y97.267 E47.18597
G1 X82.541 Y80.133 E48.07436
G1 X81.709 Y80.133 E48.11747
G1 X81.709 Y97.267 E49.00586
G1 X80.878 Y97.267 E49.04897
G1 X80.878 Y80.133 E49.93736
M106 S170.85
G1 E43.73736 F3600.00000
G92 E0
G1 Z0.600 F4800.000
G1 X119.750 Y112.248 F4800.000
G1 Z0.450 F4800.000
G1 E6.20000 F3600.00000
G1 X119.750 Y120.250 E6.43346 F2016.000
G1 X80.250 Y120.250 E7.58583
G1 X80.250 Y112.248 E7.81929
G1 X119.675 Y112.248 E8.96947
G1 E2.76947 F3600.00000
G92 E0
G1 Z0.750 F4800.000
G1 X119.367 Y112.876 F4800.000
G1 Z0.450 F4800.000
G1 E6.20000 F3600.00000
G1 X80.633 Y112.876 E8.23704 F2400.000
G1 X80.633 Y113.719 E8.28139
G1 X119.367 Y113.719 E10.31844
G1 X119.367 Y114.562 E10.36278
G1 X80.633 Y114.562 E12.39983
G1 X80.633 Y115.406 E12.44418
G1 X119.367 Y115.406 E14.48122
G1 X119.367 Y116.249 E14.52557
G1 X80.633 Y116.249 E16.56261
G1 X80.633 Y117.092 E16.60696
G1 X119.367 Y117.092 E18.64400
G1 X119.367 Y117.935 E18.68835
G1 X80.633 Y117.935 E20.72539
G1 X80.633 Y118.779 E20.76974
G1 X119.367 Y118.779 E22.80679
G1 X119.367 Y119.622 E22.85114
G1 X80.633 Y119.622 E24.88818
G1 E18.68818 F3600.00000
G92 E0
G1 Z0.750 F4800.000
G1 X119.750 Y109.794 F4800.000
G1 Z0.450 F4800.000
G1 E6.20000 F3600.00000
G1 X80.250 Y109.794 E7.35237 F2016.000
G1 X80.250 Y102.350 E7.56955
G1 X119.750 Y102.350 E8.72192
G1 X119.750 Y109.719 E8.93691
G1 E2.73691 F3600.00000
G92 E0
G1 Z0.750 F4800.000
G1 X80.633 Y109.166 F4800.000
G1 Z0.450 F4800.000
G1 E6.20000 F3600.00000
G1 X119.367 Y109.166 E8.33548 F2400.000
G1 X119.367 Y108.282 E8.38421
G1 X80.633 Y108.282 E10.51969
G1 X80.633 Y107.398 E10.56843
G1 X119.367 Y107.398 E12.70390
G1 X119.367 Y106.514 E12.75264
G1 X80.633 Y106.514 E14.88812
G1 X80.633 Y105.630 E14.93686
G1 X119.367 Y105.630 E17.07233
G1 X119.367 Y104.746 E17.12107
G1 X80.633 Y104.746 E19.25655
G1 X80.633 Y103.862 E19.30528
G1 X119.367 Y103.862 E21.44076
G1 X119.367 Y102.978 E21.48950
G1 X80.633 Y102.978 E23.62497
G1 E17.42497 F3600.00000
G92 E0
G1 Z0.750 F4800.000
G1 X119.750 Y97.650 F4800.000
G1 Z0.450 F4800.000
G1 E6.20000 F3600.00000
G1 X80.250 Y97.650 E7.35237 F2016.000
G1 X80.250 Y90.206 E7.56955
G1 X119.750 Y90.206 E8.72192
G1 X119.750 Y97.575 E8.93691
G1 E2.73691 F3600.00000
G92 E0
G1 Z0.750 F4800.000
G1 X80.633 Y97.022 F4800.000
G1 Z0.450 F4800.000
G1 E6.20000 F3600.00000
G1 X119.367 Y97.022 E8.33548 F2400.000
G1 X119.367 Y96.138 E8.38421
G1 X80.633 Y96.138 E10.51969
G1 X80.633 Y95.254 E10.56843
G1 X119.367 Y95.254 E12.70390
G1 X119.367 Y94.370 E12.75264
G1 X80.633 Y94.370 E14.88812
G1 X80.633 Y93.486 E14.93686
G1 X119.367 Y93.486 E17.07233
G1 X119.367 Y92.602 E17.12107
G1 X80.633 Y92.602 E19.25655
G1 X80.633 Y91.718 E19.30528
G1 X119.367 Y91.718 E21.44076
G1 X119.367 Y90.834 E21.48950
G1 X80.633 Y90.834 E23.62497
G1 E17.42497 F3600.00000
G92 E0
G1 Z0.750 F4800.000
G1 X119.750 Y87.752 F4800.000
G1 Z0.450 F4800.000
G1 E6.20000 F3600.00000
G1 X80.250 Y87.752 E7.35237 F2016.000
G1 X80.250 Y79.750 E7.58583
G1 X119.750 Y79.750 E8.73820
G1 X119.750 Y87.677 E8.96947
G1 E2.76947 F3600.00000
G92 E0
G1 Z0.750 F4800.000
G1 X119.367 Y80.378 F4800.000
G1 Z0.450 F4800.000
G1 E6.20000 F3600.00000
G1 X80.633 Y80.378 E8.23705 F2400.000
G1 X80.633 Y81.221 E8.28139
G1 X119.367 Y81.221 E10.31844
G1 X119.367 Y82.065 E10.36279
G1 X80.633 Y82.065 E12.39983
G1 X80.633 Y82.908 E12.44418
G1 X119.367 Y82.908 E14.48123
G1 X119.367 Y83.751 E14.52557
G1 X80.633 Y83.751 E16.56262
G1 X80.633 Y84.594 E16.60697
G1 X119.367 Y84.594 E18.64401
G1 X119.367 Y85.438 E18.68836
G1 X80.633 Y85.438 E20.72541
G1 X80.633 Y86.281 E20.76975
G1 X119.367 Y86.281 E22.80680
G1 X119.367 Y87.124 E22.85115
G1 X80.633 Y87.124 E24.88819
M106 S232.05
G1 E18.68819 F3600.00000
G92 E0
G1 Z0.750 F4800.000
G1 X119.750 Y112.339 F4800.000
G1 Z0.600 F4800.000
G1 E6.20000 F3600.00000
G1 X119.750 Y120.250 E6.43079 F2016.000
G1 X80.250 Y120.250 E7.58316
G1 X80.250 Y112.339 E7.81394
G1 X119.675 Y112.339 E8.96413
G1 E2.76413 F3600.00000
G92 E0
G1 Z0.900 F4800.000
G1 X119.122 Y119.867 F4800.000
G1 Z0.600 F4800.000
G1 E6.20000 F3600.00000
G1 X119.122 Y112.722 E6.57047 F2400.000
G1 X118.291 Y112.722 E6.61358
G1 X118.291 Y119.867 E6.98405
G1 X117.459 Y119.867 E7.02715
G1 X117.459 Y112.722 E7.39762
G1 X116.628 Y112.722 E7.44073
G1 X116.628 Y119.867 E7.81120
G1 X115.796 Y119.867 E7.85430
G1 X115.796 Y112.722 E8.22477
G1 X114.965 Y112.722 E8.26788
G1 X114.965 Y119.867 E8.63835
G1 X114.134 Y119.867 E8.68145
G1 X114.134 Y112.722 E9.05192
G1 X113.302 Y112.722 E9.09503
G1 X113.302 Y119.867 E9.46550
G1 X112.471 Y119.867 E9.50860
G1 X112.471 Y112.722 E9.87907
G1 X111.639 Y112.722 E9.92218
G1 X111.639 Y119.867 E10.29265
G1 X110.808 Y119.867 E10.33576
G1 X110.808 Y112.722 E10.70623
G1 X109.977 Y112.722 E10.74933
G1 X109.977 Y119.867 E11.11980
G1 X109.145 Y119.867 E11.16291
G1 X109.145 Y112.722 E11.53338
G1 X108.314 Y112.722 E11.57648
G1 X108.314 Y119.867 E11.94695
G1 X107.483 Y119.867 E11.99006
G1 X107.483 Y112.722 E12.36053
G1 X106.651 Y112.722 E12.40363
G1 X106.651 Y119.867 E12.77410
G1 X105.820 Y119.867 E12.81721
G1 X105.820 Y112.722 E13.18768
G1 X104.988 Y112.722 E13.23078
G1 X104.988 Y119.867 E13.60125
G1 X104.157 Y119.867 E13.64436
G1 X104.157 Y112.722 E14.01483
G1 X103.326 Y112.722 E14.05794
