; generated by Slic3r 1.1.5 on 2014-07-20 at 18:34:15

; perimeters extrusion width = 0.40mm
; infill extrusion width = 0.56mm
; solid infill extrusion width = 0.56mm
; top infill extrusion width = 0.56mm

G21 ; set units to millimeters
M107
M104 S216 ; set temperature
G28 ; home all axes
G1 Z5 F5000 ; lift nozzle

M109 S216 ; wait for temperature to be reached
G90 ; use absolute coordinates
G92 E0
M82 ; use absolute distances for extrusion
G1 F1800.000 E-3.50000
G92 E0
G1 Z0.240 F6000.000
G1 X69.248 Y52.581 F6000.000
G1 E3.50000 F1800.000
G1 X70.723 Y50.876 E3.53061 F2100.000
G1 X72.697 Y49.788 E3.56122
G1 X74.750 Y49.450 E3.58948
G1 X125.750 Y49.450 E4.28213
G1 X127.969 Y49.847 E4.31274
G1 X129.912 Y50.988 E4.34335
G1 X131.277 Y52.623 E4.37227
G1 X159.477 Y100.923 E5.13186
G1 X160.350 Y104.150 E5.17726
G1 X160.350 Y144.150 E5.72051
G1 X159.953 Y146.369 E5.75112
G1 X158.812 Y148.312 E5.78173
G1 X157.067 Y149.739 E5.81234
G1 X153.950 Y150.550 E5.85609
G1 X46.050 Y150.550 E7.32150
G1 X43.831 Y150.153 E7.35211
G1 X41.888 Y149.012 E7.38272
G1 X40.461 Y147.267 E7.41334
G1 X39.650 Y144.150 E7.45708
G1 X39.650 Y104.150 E8.00033
G1 X40.047 Y101.931 E8.03094
G1 X40.548 Y100.881 E8.04675
G1 X69.217 Y52.632 E8.80897
G1 F1800.000 E5.30897
G92 E0
G1 X60.766 Y47.278 F6000.000
G1 E3.50000 F1800.000
G1 X61.268 Y46.550 E3.51202 F2100.000
G1 X61.537 Y46.209 E3.51791
G1 X63.455 Y43.992 E3.55772
G1 X64.079 Y43.389 E3.56951
G1 X64.781 Y42.820 E3.58178
G1 X65.501 Y42.336 E3.59357
G1 X68.251 Y40.820 E3.63621
G1 X69.013 Y40.481 E3.64754
G1 X69.834 Y40.197 E3.65933
G1 X70.642 Y39.992 E3.67066
G1 X73.330 Y39.549 E3.70765
G1 X74.142 Y39.466 E3.71874
G1 X74.542 Y39.450 E3.72418
G1 X125.976 Y39.450 E4.42271
G1 X126.859 Y39.509 E4.43473
G1 X127.667 Y39.634 E4.44584
G1 X127.754 Y39.631 E4.44701
G1 X129.533 Y39.168 E4.47198
G1 X131.459 Y40.300 E4.50233
G1 X133.725 Y40.718 E4.53362
G1 X134.776 Y42.226 E4.55858
G1 X134.840 Y42.285 E4.55976
G1 X135.355 Y42.588 E4.56788
G1 X136.043 Y43.076 E4.57934
G1 X136.713 Y43.644 E4.59127
G1 X137.307 Y44.243 E4.60272
G1 X139.090 Y46.378 E4.64051
G1 X139.339 Y46.703 E4.64607
G1 X139.805 Y47.397 E4.65742
G1 X168.283 Y96.172 E5.42448
G1 X168.572 Y96.752 E5.43328
G1 X168.832 Y97.373 E5.44243
G1 X169.042 Y97.986 E5.45123
G1 X170.091 Y101.864 E5.50578
G1 X170.218 Y102.499 E5.51458
G1 X170.307 Y103.167 E5.52373
G1 X170.350 Y103.813 E5.53253
G1 X170.350 Y144.376 E6.08342
G1 X170.331 Y144.809 E6.08931
G1 X170.233 Y145.689 E6.10133
G1 X169.717 Y148.574 E6.14114
G1 X169.490 Y149.412 E6.15293
G1 X169.176 Y150.259 E6.16520
G1 X168.805 Y151.043 E6.17698
G1 X167.206 Y153.766 E6.21986
G1 X166.702 Y154.472 E6.23165
G1 X166.114 Y155.159 E6.24392
G1 X165.494 Y155.765 E6.25571
G1 X162.974 Y157.827 E6.29993
G1 X162.088 Y158.405 E6.31430
G1 X161.106 Y158.904 E6.32925
G1 X160.117 Y159.279 E6.34362
G1 X156.152 Y160.310 E6.39925
G1 X155.540 Y160.428 E6.40772
G1 X154.897 Y160.510 E6.41653
G1 X154.274 Y160.550 E6.42500
G1 X45.824 Y160.550 E7.89789
G1 X45.391 Y160.531 E7.90378
G1 X44.511 Y160.433 E7.91579
G1 X41.626 Y159.917 E7.95560
G1 X40.788 Y159.690 E7.96739
G1 X39.941 Y159.376 E7.97966
G1 X39.157 Y159.005 E7.99145
G1 X36.434 Y157.406 E8.03433
G1 X35.728 Y156.902 E8.04611
G1 X35.041 Y156.314 E8.05838
G1 X34.434 Y155.694 E8.07017
G1 X32.372 Y153.174 E8.11439
G1 X31.795 Y152.288 E8.12876
G1 X31.296 Y151.306 E8.14372
G1 X30.921 Y150.317 E8.15809
G1 X29.890 Y146.352 E8.21372
G1 X29.772 Y145.740 E8.22219
G1 X29.690 Y145.096 E8.23100
G1 X29.650 Y144.474 E8.23946
G1 X29.650 Y103.924 E8.79018
G1 X29.709 Y103.041 E8.80220
G1 X29.766 Y102.611 E8.80809
G1 X30.263 Y99.834 E8.84641
G1 X30.422 Y99.196 E8.85534
G1 X30.631 Y98.545 E8.86462
G1 X30.874 Y97.935 E8.87355
G1 X31.572 Y96.471 E8.89558
G1 X31.892 Y95.872 E8.90479
G1 X60.736 Y47.330 E9.67166
G1 X61.106 Y47.490 F6000.000
G1 X61.588 Y46.791 E9.68319 F2100.000
G1 X61.846 Y46.464 E9.68884
G1 X63.746 Y44.267 E9.72830
G1 X64.344 Y43.688 E9.73960
G1 X65.019 Y43.142 E9.75139
G1 X65.709 Y42.678 E9.76270
G1 X68.429 Y41.179 E9.80487
G1 X69.160 Y40.854 E9.81574
G1 X69.949 Y40.581 E9.82707
G1 X70.724 Y40.384 E9.83793
G1 X73.387 Y39.945 E9.87458
G1 X74.167 Y39.866 E9.88523
G1 X74.550 Y39.850 E9.89044
G1 X125.967 Y39.850 E10.58874
G1 X126.814 Y39.907 E10.60028
G1 X127.683 Y40.043 E10.61222
G1 X127.769 Y40.040 E10.61340
G1 X129.473 Y39.597 E10.63730
G1 X131.318 Y40.681 E10.66637
G1 X133.492 Y41.083 E10.69639
G1 X134.498 Y42.527 E10.72029
G1 X134.561 Y42.586 E10.72147
G1 X135.138 Y42.924 E10.73054
G1 X135.798 Y43.392 E10.74153
G1 X136.441 Y43.938 E10.75299
G1 X137.011 Y44.512 E10.76398
G1 X138.778 Y46.628 E10.80142
G1 X139.017 Y46.940 E10.80675
G1 X139.464 Y47.606 E10.81765
G1 X167.931 Y96.362 E11.58442
G1 X168.208 Y96.918 E11.59285
G1 X168.458 Y97.516 E11.60165
G1 X168.659 Y98.103 E11.61009
G1 X169.701 Y101.955 E11.66428
G1 X169.824 Y102.564 E11.67272
G1 X169.909 Y103.206 E11.68152
G1 X169.950 Y103.826 E11.68995
G1 X169.950 Y144.367 E12.24054
G1 X169.932 Y144.783 E12.24620
G1 X169.838 Y145.627 E12.25773
G1 X169.327 Y148.486 E12.29718
G1 X169.108 Y149.290 E12.30849
G1 X168.807 Y150.104 E12.32028
G1 X168.451 Y150.856 E12.33158
G1 X166.870 Y153.548 E12.37398
G1 X166.387 Y154.226 E12.38529
G1 X165.822 Y154.885 E12.39708
G1 X165.227 Y155.467 E12.40838
G1 X162.737 Y157.504 E12.45207
G1 X161.887 Y158.059 E12.46585
G1 X160.944 Y158.538 E12.48022
G1 X159.995 Y158.897 E12.49400
G1 X156.064 Y159.919 E12.54917
G1 X155.477 Y160.033 E12.55729
G1 X154.858 Y160.112 E12.56576
G1 X154.262 Y160.150 E12.57388
G1 X45.833 Y160.150 E14.04647
G1 X45.417 Y160.132 E14.05212
G1 X44.573 Y160.038 E14.06366
G1 X41.714 Y159.527 E14.10311
G1 X40.910 Y159.308 E14.11441
G1 X40.096 Y159.007 E14.12620
G1 X39.344 Y158.651 E14.13751
G1 X36.652 Y157.070 E14.17991
G1 X35.974 Y156.587 E14.19121
G1 X35.315 Y156.022 E14.20300
G1 X34.733 Y155.427 E14.21431
G1 X32.696 Y152.937 E14.25800
G1 X32.141 Y152.087 E14.27178
G1 X31.662 Y151.144 E14.28615
G1 X31.303 Y150.195 E14.29993
G1 X30.280 Y146.264 E14.35509
G1 X30.167 Y145.677 E14.36322
G1 X30.088 Y145.058 E14.37169
G1 X30.050 Y144.462 E14.37980
G1 X30.050 Y103.933 E14.93023
G1 X30.107 Y103.086 E14.94177
G1 X30.162 Y102.673 E14.94742
G1 X30.655 Y99.917 E14.98544
G1 X30.807 Y99.306 E14.99400
G1 X31.008 Y98.680 E15.00292
G1 X31.241 Y98.095 E15.01148
G1 X31.931 Y96.647 E15.03326
G1 X32.238 Y96.073 E15.04210
G1 X61.075 Y47.542 E15.80879
G1 X61.445 Y47.702 F6000.000
G1 X61.907 Y47.032 E15.81985 F2100.000
G1 X62.154 Y46.719 E15.82526
G1 X64.037 Y44.542 E15.86435
G1 X64.610 Y43.988 E15.87517
G1 X65.257 Y43.464 E15.88648
G1 X65.918 Y43.019 E15.89730
G1 X68.607 Y41.538 E15.93900
G1 X69.307 Y41.226 E15.94941
G1 X70.063 Y40.964 E15.96028
G1 X70.806 Y40.776 E15.97068
G1 X73.444 Y40.341 E16.00699
G1 X74.191 Y40.265 E16.01719
G1 X74.558 Y40.250 E16.02218
G1 X125.958 Y40.250 E16.72025
G1 X126.770 Y40.304 E16.73131
G1 X127.699 Y40.453 E16.74408
G1 X127.785 Y40.449 E16.74526
G1 X129.413 Y40.026 E16.76810
G1 X131.178 Y41.062 E16.79589
G1 X133.258 Y41.447 E16.82463
G1 X134.220 Y42.827 E16.84747
G1 X134.283 Y42.886 E16.84865
G1 X134.920 Y43.260 E16.85868
G1 X135.552 Y43.709 E16.86920
G1 X136.169 Y44.232 E16.88019
G1 X136.715 Y44.782 E16.89072
G1 X138.465 Y46.878 E16.92780
G1 X138.694 Y47.177 E16.93291
G1 X139.123 Y47.815 E16.94335
G1 X167.579 Y96.553 E17.70983
G1 X167.844 Y97.085 E17.71791
G1 X168.084 Y97.658 E17.72635
G1 X168.277 Y98.220 E17.73442
G1 X169.312 Y102.047 E17.78826
G1 X169.429 Y102.630 E17.79634
G1 X169.511 Y103.246 E17.80478
G1 X169.550 Y103.839 E17.81285
G1 X169.550 Y144.358 E18.36315
G1 X169.532 Y144.756 E18.36856
G1 X169.443 Y145.565 E18.37961
G1 X168.936 Y148.398 E18.41870
G1 X168.727 Y149.168 E18.42953
G1 X168.438 Y149.948 E18.44083
G1 X168.097 Y150.669 E18.45166
G1 X166.534 Y153.330 E18.49358
G1 X166.071 Y153.979 E18.50440
G1 X165.530 Y154.611 E18.51571
G1 X164.960 Y155.169 E18.52653
G1 X162.501 Y157.181 E18.56969
G1 X161.687 Y157.712 E18.58288
G1 X160.782 Y158.171 E18.59667
G1 X159.874 Y158.516 E18.60986
G1 X155.976 Y159.529 E18.66456
G1 X155.414 Y159.638 E18.67234
G1 X154.820 Y159.714 E18.68046
G1 X154.249 Y159.750 E18.68823
G1 X45.842 Y159.750 E20.16053
G1 X45.444 Y159.732 E20.16594
G1 X44.635 Y159.643 E20.17700
G1 X41.802 Y159.136 E20.21609
G1 X41.032 Y158.927 E20.22691
G1 X40.252 Y158.638 E20.23822
G1 X39.531 Y158.297 E20.24905
G1 X36.870 Y156.734 E20.29096
G1 X36.221 Y156.271 E20.30179
G1 X35.589 Y155.730 E20.31310
G1 X35.031 Y155.160 E20.32392
G1 X33.019 Y152.701 E20.36708
G1 X32.488 Y151.887 E20.38027
G1 X32.029 Y150.982 E20.39405
G1 X31.684 Y150.074 E20.40725
G1 X30.671 Y146.176 E20.46195
G1 X30.562 Y145.613 E20.46973
G1 X30.486 Y145.020 E20.47785
G1 X30.450 Y144.449 E20.48562
G1 X30.450 Y103.942 E21.03575
G1 X30.504 Y103.130 E21.04681
G1 X30.557 Y102.735 E21.05222
G1 X31.046 Y100.001 E21.08994
G1 X31.192 Y99.416 E21.09813
G1 X31.385 Y98.816 E21.10669
G1 X31.608 Y98.255 E21.11489
G1 X32.290 Y96.823 E21.13643
G1 X32.584 Y96.273 E21.14490
G1 X61.415 Y47.754 E21.91140
G1 X61.785 Y47.914 F6000.000
G1 X62.226 Y47.273 E21.92198 F2100.000
G1 X62.462 Y46.974 E21.92715
G1 X64.328 Y44.818 E21.96588
G1 X64.875 Y44.288 E21.97622
G1 X65.495 Y43.786 E21.98705
G1 X66.127 Y43.361 E21.99739
G1 X68.785 Y41.896 E22.03862
G1 X69.454 Y41.599 E22.04856
G1 X70.178 Y41.348 E22.05897
G1 X70.888 Y41.168 E22.06891
G1 X73.501 Y40.737 E22.10487
G1 X74.216 Y40.664 E22.11463
G1 X74.566 Y40.650 E22.11940
G1 X125.949 Y40.650 E22.81724
G1 X126.726 Y40.702 E22.82782
G1 X127.715 Y40.862 E22.84142
G1 X127.801 Y40.858 E22.84259
G1 X129.353 Y40.455 E22.86438
G1 X131.103 Y41.468 E22.89184
G1 X133.025 Y41.812 E22.91835
G1 X133.942 Y43.128 E22.94013
G1 X134.005 Y43.187 E22.94131
G1 X134.703 Y43.596 E22.95230
G1 X135.307 Y44.025 E22.96235
G1 X135.898 Y44.526 E22.97288
G1 X136.419 Y45.051 E22.98293
G1 X138.153 Y47.128 E23.01967
G1 X138.372 Y47.413 E23.02455
G1 X138.782 Y48.024 E23.03454
G1 X167.226 Y96.743 E23.80073
G1 X167.480 Y97.251 E23.80844
G1 X167.710 Y97.800 E23.81652
G1 X167.894 Y98.338 E23.82424
G1 X168.922 Y102.139 E23.87772
G1 X169.034 Y102.696 E23.88544
G1 X169.112 Y103.285 E23.89351
G1 X169.150 Y103.853 E23.90123
G1 X169.150 Y144.349 E24.45123
G1 X169.133 Y144.730 E24.45640
G1 X169.048 Y145.504 E24.46697
G1 X168.545 Y148.311 E24.50570
G1 X168.346 Y149.045 E24.51604
G1 X168.069 Y149.793 E24.52687
G1 X167.743 Y150.481 E24.53721
G1 X166.198 Y153.112 E24.57865
G1 X165.756 Y153.732 E24.58899
G1 X165.237 Y154.338 E24.59982
G1 X164.693 Y154.870 E24.61016
G1 X162.264 Y156.858 E24.65278
G1 X161.486 Y157.365 E24.66539
G1 X160.620 Y157.805 E24.67859
G1 X159.752 Y158.134 E24.69120
G1 X155.887 Y159.139 E24.74543
G1 X155.350 Y159.243 E24.75286
G1 X154.782 Y159.315 E24.76064
G1 X154.236 Y159.350 E24.76807
G1 X45.851 Y159.350 E26.24007
G1 X45.470 Y159.333 E26.24524
G1 X44.696 Y159.248 E26.25582
G1 X41.889 Y158.745 E26.29455
G1 X41.155 Y158.546 E26.30489
G1 X40.407 Y158.269 E26.31572
G1 X39.719 Y157.943 E26.32606
G1 X37.088 Y156.398 E26.36750
G1 X36.468 Y155.956 E26.37784
G1 X35.862 Y155.437 E26.38867
G1 X35.330 Y154.893 E26.39901
G1 X33.342 Y152.464 E26.44163
G1 X32.835 Y151.686 E26.45424
G1 X32.395 Y150.820 E26.46744
G1 X32.066 Y149.952 E26.48005
G1 X31.061 Y146.087 E26.53428
G1 X30.957 Y145.550 E26.54171
G1 X30.885 Y144.982 E26.54949
G1 X30.850 Y144.436 E26.55692
G1 X30.850 Y103.951 E27.10676
G1 X30.902 Y103.174 E27.11733
G1 X30.952 Y102.797 E27.12250
G1 X31.438 Y100.085 E27.15992
G1 X31.577 Y99.525 E27.16775
G1 X31.761 Y98.951 E27.17594
G1 X31.974 Y98.415 E27.18377
G1 X32.649 Y97.000 E27.20507
G1 X32.930 Y96.474 E27.21317
G1 X61.754 Y47.966 E27.97949
G1 X62.124 Y48.126 F6000.000
G1 X62.545 Y47.514 E27.98958 F2100.000
G1 X62.771 Y47.229 E27.99452
G1 X64.619 Y45.093 E28.03288
G1 X65.141 Y44.588 E28.04275
G1 X65.733 Y44.108 E28.05309
G1 X66.335 Y43.703 E28.06295
G1 X68.963 Y42.255 E28.10371
G1 X69.601 Y41.971 E28.11319
G1 X70.293 Y41.731 E28.12313
G1 X70.970 Y41.560 E28.13261
G1 X73.558 Y41.133 E28.16824
G1 X73.890 Y41.092 E28.17279
G1 X74.575 Y41.050 E28.18210
G1 X125.940 Y41.050 E28.87971
G1 X126.682 Y41.100 E28.88980
G1 X127.730 Y41.271 E28.90423
G1 X127.817 Y41.268 E28.90541
G1 X129.294 Y40.884 E28.92613
G1 X130.962 Y41.849 E28.95231
G1 X132.791 Y42.176 E28.97755
G1 X133.663 Y43.428 E28.99827
G1 X133.727 Y43.487 E28.99945
G1 X134.485 Y43.933 E29.01139
G1 X135.061 Y44.341 E29.02098
G1 X135.626 Y44.820 E29.03103
G1 X136.123 Y45.321 E29.04062
G1 X137.840 Y47.378 E29.07701
G1 X138.049 Y47.650 E29.08167
G1 X138.440 Y48.233 E29.09120
G1 X166.874 Y96.933 E29.85710
G1 X167.116 Y97.418 E29.86445
G1 X167.335 Y97.942 E29.87217
G1 X167.511 Y98.455 E29.87953
G1 X168.533 Y102.230 E29.93265
G1 X168.639 Y102.762 E29.94001
G1 X168.714 Y103.325 E29.94773
G1 X168.750 Y103.866 E29.95509
G1 X168.750 Y144.340 E30.50478
G1 X168.734 Y144.703 E30.50971
G1 X168.652 Y145.442 E30.51981
G1 X168.155 Y148.223 E30.55817
G1 X167.964 Y148.923 E30.56804
G1 X167.700 Y149.638 E30.57838
G1 X167.389 Y150.294 E30.58825
G1 X165.862 Y152.894 E30.62920
G1 X165.440 Y153.486 E30.63906
G1 X164.945 Y154.064 E30.64941
G1 X164.426 Y154.572 E30.65927
G1 X162.027 Y156.534 E30.70136
G1 X161.286 Y157.018 E30.71338
G1 X160.458 Y157.439 E30.72599
G1 X159.630 Y157.752 E30.73801
G1 X155.799 Y158.748 E30.79178
G1 X155.287 Y158.847 E30.79886
G1 X154.744 Y158.917 E30.80629
G1 X154.224 Y158.950 E30.81338
G1 X45.860 Y158.950 E32.28509
G1 X45.497 Y158.934 E32.29002
G1 X44.758 Y158.852 E32.30012
G1 X41.977 Y158.355 E32.33848
G1 X41.277 Y158.164 E32.34835
G1 X40.562 Y157.900 E32.35869
G1 X39.906 Y157.589 E32.36855
G1 X37.306 Y156.062 E32.40951
G1 X36.714 Y155.640 E32.41937
G1 X36.136 Y155.145 E32.42972
G1 X35.628 Y154.626 E32.43958
G1 X33.665 Y152.227 E32.48167
G1 X33.182 Y151.486 E32.49369
G1 X32.761 Y150.658 E32.50630
G1 X32.448 Y149.830 E32.51832
G1 X31.451 Y145.999 E32.57209
G1 X31.353 Y145.487 E32.57918
G1 X31.283 Y144.944 E32.58661
G1 X31.250 Y144.423 E32.59369
G1 X31.250 Y103.960 E33.14324
G1 X31.300 Y103.218 E33.15333
G1 X31.348 Y102.858 E33.15826
G1 X31.829 Y100.168 E33.19537
G1 X31.962 Y99.635 E33.20284
G1 X32.138 Y99.086 E33.21067
G1 X32.341 Y98.575 E33.21814
G1 X33.008 Y97.176 E33.23919
G1 X33.277 Y96.674 E33.24692
G1 X62.093 Y48.178 E34.01306
G1 X62.463 Y48.338 F6000.000
G1 X62.865 Y47.755 E34.02267 F2100.000
G1 X63.079 Y47.484 E34.02736
G1 X64.910 Y45.368 E34.06537
G1 X65.406 Y44.887 E34.07475
G1 X65.970 Y44.430 E34.08461
G1 X66.544 Y44.045 E34.09400
G1 X69.142 Y42.613 E34.13428
G1 X69.748 Y42.343 E34.14330
G1 X70.408 Y42.115 E34.15278
G1 X71.052 Y41.952 E34.16180
G1 X73.615 Y41.529 E34.19708
G1 X73.931 Y41.490 E34.20140
G1 X74.583 Y41.450 E34.21027
G1 X125.931 Y41.450 E34.90765
G1 X126.638 Y41.497 E34.91726
G1 X127.746 Y41.680 E34.93252
G1 X127.833 Y41.677 E34.93370
G1 X129.234 Y41.312 E34.95336
G1 X130.755 Y42.206 E34.97732
G1 X132.558 Y42.541 E35.00222
G1 X133.385 Y43.729 E35.02189
G1 X133.449 Y43.788 E35.02306
G1 X134.268 Y44.269 E35.03596
G1 X134.816 Y44.657 E35.04508
G1 X135.354 Y45.114 E35.05467
G1 X135.827 Y45.590 E35.06379
G1 X137.528 Y47.628 E35.09984
G1 X137.726 Y47.887 E35.10426
G1 X138.099 Y48.442 E35.11334
G1 X166.522 Y97.123 E35.87894
G1 X166.752 Y97.585 E35.88594
G1 X166.961 Y98.085 E35.89330
G1 X167.129 Y98.572 E35.90030
G1 X168.143 Y102.322 E35.95306
G1 X168.245 Y102.827 E35.96006
G1 X168.316 Y103.365 E35.96742
G1 X168.350 Y103.879 E35.97442
G1 X168.350 Y144.331 E36.52382
G1 X168.335 Y144.676 E36.52851
G1 X168.257 Y145.380 E36.53812
G1 X167.764 Y148.135 E36.57613
G1 X167.583 Y148.801 E36.58551
G1 X167.331 Y149.483 E36.59537
G1 X167.035 Y150.107 E36.60475
G1 X165.526 Y152.677 E36.64523
G1 X165.125 Y153.239 E36.65461
G1 X164.653 Y153.791 E36.66447
G1 X164.159 Y154.274 E36.67386
G1 X161.791 Y156.211 E36.71541
G1 X161.086 Y156.671 E36.72684
G1 X160.296 Y157.072 E36.73887
G1 X159.509 Y157.371 E36.75030
G1 X155.711 Y158.358 E36.80360
G1 X155.223 Y158.452 E36.81034
G1 X154.706 Y158.518 E36.81743
G1 X154.211 Y158.550 E36.82417
G1 X45.868 Y158.550 E38.29559
G1 X45.524 Y158.535 E38.30028
G1 X44.820 Y158.457 E38.30989
G1 X42.065 Y157.964 E38.34790
